flaticon/seo-and-analytics/browser-1.svg

<svg xmlns="http://www.w3.org/2000/svg" width="32" height="32" viewBox="0 0 24 24">
    <path d="M2.800781 1.199219C1.921875 1.199219 1.199219 1.921875 1.199219 2.800781 1.199219 3.679688 1.921875 4.398438 2.800781 4.398438 3.679688 4.398438 4.398438 3.679688 4.398438 2.800781 4.398438 1.921875 3.679688 1.199219 2.800781 1.199219zM2.800781 3.601562C2.359375 3.601562 2 3.238281 2 2.800781 2 2.359375 2.359375 2 2.800781 2 3.238281 2 3.601562 2.359375 3.601562 2.800781 3.601562 3.238281 3.238281 3.601562 2.800781 3.601562zM6.398438 1.199219C5.519531 1.199219 4.800781 1.921875 4.800781 2.800781 4.800781 3.679688 5.519531 4.398438 6.398438 4.398438 7.28125 4.398438 8 3.679688 8 2.800781 8 1.921875 7.28125 1.199219 6.398438 1.199219zM6.398438 3.601562C5.960938 3.601562 5.601562 3.238281 5.601562 2.800781 5.601562 2.359375 5.960938 2 6.398438 2 6.839844 2 7.199219 2.359375 7.199219 2.800781 7.199219 3.238281 6.839844 3.601562 6.398438 3.601562zM10 1.199219C9.121094 1.199219 8.398438 1.921875 8.398438 2.800781 8.398438 3.679688 9.121094 4.398438 10 4.398438 10.878906 4.398438 11.601562 3.679688 11.601562 2.800781 11.601562 1.921875 10.878906 1.199219 10 1.199219zM10 3.601562C9.558594 3.601562 9.199219 3.238281 9.199219 2.800781 9.199219 2.359375 9.558594 2 10 2 10.441406 2 10.800781 2.359375 10.800781 2.800781 10.800781 3.238281 10.441406 3.601562 10 3.601562zM10 3.601562"/>
    <path d="M 22.878906 0 L 1.160156 0 C 0.519531 0 0 0.519531 0 1.160156 L 0 22.71875 C 0 23.441406 0.558594 24 1.28125 24 L 22.71875 24 C 23.441406 24 24 23.441406 24 22.71875 L 24 1.160156 C 24 0.519531 23.480469 0 22.878906 0 Z M 23.199219 22.71875 C 23.199219 23 23 23.199219 22.71875 23.199219 L 1.28125 23.199219 C 1 23.199219 0.800781 23 0.800781 22.71875 L 0.800781 5.601562 L 23.199219 5.601562 Z M 0.800781 4.800781 L 0.800781 1.160156 C 0.800781 0.960938 0.960938 0.800781 1.160156 0.800781 L 22.839844 0.800781 C 23.039062 0.800781 23.199219 0.960938 23.199219 1.160156 L 23.199219 4.800781 Z M 0.800781 4.800781"/>
    <path d="M 12 19.601562 C 12.984375 19.601562 13.78125 18.921875 13.960938 18 L 20.800781 18 L 20.800781 17.601562 C 20.800781 12.761719 16.839844 8.800781 12 8.800781 C 7.160156 8.800781 3.199219 12.761719 3.199219 17.601562 L 3.199219 18 L 10.039062 18 C 10.21875 18.921875 11.015625 19.601562 12 19.601562 Z M 12 18.800781 C 11.320312 18.800781 10.800781 18.28125 10.800781 17.601562 C 10.800781 16.960938 11.359375 16.398438 12 16.398438 C 12.640625 16.398438 13.199219 16.960938 13.199219 17.601562 C 13.199219 18.28125 12.679688 18.800781 12 18.800781 Z M 5.1875 13.382812 L 6.558594 14.320312 C 6.640625 14.359375 6.71875 14.398438 6.800781 14.398438 C 6.921875 14.398438 7.039062 14.320312 7.121094 14.199219 C 7.238281 14 7.199219 13.761719 7 13.640625 L 5.652344 12.71875 C 6.304688 11.875 7.121094 11.164062 8.058594 10.632812 L 8.839844 12.199219 C 8.921875 12.320312 9.039062 12.398438 9.199219 12.398438 C 9.28125 12.398438 9.320312 12.398438 9.359375 12.359375 C 9.558594 12.28125 9.601562 12.039062 9.519531 11.839844 L 8.746094 10.289062 C 9.625 9.898438 10.589844 9.660156 11.601562 9.609375 L 11.601562 11.601562 C 11.601562 11.839844 11.761719 12 12 12 C 12.238281 12 12.398438 11.839844 12.398438 11.601562 L 12.398438 9.609375 C 13.410156 9.660156 14.375 9.898438 15.253906 10.289062 L 14.480469 11.839844 C 14.359375 12.039062 14.441406 12.28125 14.640625 12.359375 C 14.679688 12.398438 14.71875 12.398438 14.800781 12.398438 C 14.960938 12.398438 15.078125 12.320312 15.160156 12.199219 L 15.941406 10.636719 C 16.886719 11.167969 17.714844 11.886719 18.371094 12.746094 L 17 13.679688 C 16.800781 13.800781 16.761719 14.039062 16.878906 14.238281 C 16.960938 14.320312 17.078125 14.398438 17.199219 14.398438 C 17.28125 14.398438 17.359375 14.359375 17.441406 14.359375 L 18.828125 13.410156 C 19.515625 14.523438 19.933594 15.8125 20 17.199219 L 13.960938 17.199219 C 13.910156 16.941406 13.8125 16.703125 13.675781 16.496094 L 15.519531 14.28125 C 15.679688 14.121094 15.640625 13.878906 15.480469 13.71875 C 15.320312 13.558594 15.078125 13.601562 14.921875 13.761719 L 13.113281 15.929688 C 12.84375 15.75 12.527344 15.636719 12.183594 15.609375 C 12.175781 15.609375 12.167969 15.605469 12.15625 15.605469 C 12.136719 15.605469 12.117188 15.601562 12.09375 15.601562 C 12.0625 15.601562 12.03125 15.601562 12 15.601562 C 11.96875 15.601562 11.9375 15.601562 11.90625 15.601562 C 11.882812 15.601562 11.863281 15.605469 11.84375 15.605469 C 11.832031 15.605469 11.824219 15.609375 11.816406 15.609375 C 10.921875 15.6875 10.207031 16.335938 10.039062 17.199219 L 4 17.199219 C 4.066406 15.800781 4.492188 14.5 5.1875 13.382812 Z M 5.1875 13.382812"/>
</svg>

<svg xmlns="http://www.w3.org/2000/svg" width="32" height="32" viewBox="0 0 24 24">
    <path d="M2.8 1.2c-.878 0-1.6.722-1.6 1.6 0 .88.722 1.598 1.6 1.598.88 0 1.598-.718 1.598-1.597 0-.88-.718-1.602-1.597-1.602zm0 2.402A.804.804 0 0 1 2 2.8C2 2.359 2.36 2 2.8 2c.438 0 .802.36.802.8 0 .438-.364.802-.801.802zm0 0M6.398 1.2c-.878 0-1.597.722-1.597 1.6 0 .88.719 1.598 1.597 1.598C7.281 4.398 8 3.68 8 2.801c0-.88-.719-1.602-1.602-1.602zm0 2.402a.801.801 0 0 1 0-1.602c.442 0 .801.36.801.8 0 .438-.36.802-.8.802zm0 0M10 1.2c-.879 0-1.602.722-1.602 1.6 0 .88.723 1.598 1.602 1.598.879 0 1.602-.718 1.602-1.597 0-.88-.723-1.602-1.602-1.602zm0 2.402a.804.804 0 0 1-.8-.801.802.802 0 0 1 1.6 0c0 .437-.359.8-.8.8zm0 0"/>
    <path d="M22.879 0H1.16C.52 0 0 .52 0 1.16V22.72C0 23.44.559 24 1.281 24H22.72C23.44 24 24 23.441 24 22.719V1.16C24 .52 23.48 0 22.879 0zm.32 22.719c0 .281-.199.48-.48.48H1.28c-.281 0-.48-.199-.48-.48V5.602h22.398zM.801 4.8V1.16C.8.96.96.8 1.16.8H22.84c.2 0 .36.16.36.36V4.8zm0 0"/>
    <path d="M12 19.602c.984 0 1.781-.68 1.96-1.602h6.84v-.398c0-4.84-3.96-8.801-8.8-8.801-4.84 0-8.8 3.96-8.8 8.8V18h6.84c.179.922.976 1.602 1.96 1.602zm0-.801c-.68 0-1.2-.52-1.2-1.2 0-.64.56-1.203 1.2-1.203.64 0 1.2.563 1.2 1.204 0 .68-.52 1.199-1.2 1.199zm-6.813-5.418l1.372.937c.082.04.16.078.242.078.12 0 .238-.078.32-.199.117-.199.078-.437-.121-.558l-1.348-.922a8.072 8.072 0 0 1 2.407-2.086l.78 1.566c.083.121.2.2.36.2.082 0 .121 0 .16-.04.2-.078.243-.32.16-.52l-.773-1.55a8.014 8.014 0 0 1 2.856-.68v1.993c0 .238.16.398.398.398.238 0 .398-.16.398-.398V9.609c1.012.051 1.977.29 2.856.68l-.774 1.55c-.12.2-.039.442.16.52.04.04.079.04.16.04.16 0 .278-.079.36-.2l.781-1.562a7.974 7.974 0 0 1 2.43 2.11L17 13.68c-.2.12-.238.36-.121.558.082.082.2.16.32.16.082 0 .16-.039.242-.039l1.387-.949A7.903 7.903 0 0 1 20 17.2h-6.04a1.962 1.962 0 0 0-.284-.704l1.844-2.215c.16-.16.12-.402-.04-.562-.16-.16-.402-.117-.558.043l-1.809 2.168a1.947 1.947 0 0 0-.93-.32c-.007 0-.015-.005-.027-.005-.02 0-.039-.003-.062-.003h-.188c-.023 0-.043.003-.062.003-.012 0-.02.004-.028.004a1.973 1.973 0 0 0-1.777 1.59H4a7.91 7.91 0 0 1 1.188-3.816zm0 0"/>
</svg>
